science/organic/油脂.svg

<svg xmlns="http://www.w3.org/2000/svg" xmlns:xlink="http://www.w3.org/1999/xlink" width="694" height="219" x="0" y="0" version="1.1" viewBox="920 561 694 219"><g><g><rect width="694" height="219" x="920" y="561" fill="none" stroke="none"/><rect width="694" height="219" x="920" y="561" fill="none" fill-opacity="1" stroke="none"/><g><g><text x="962.628" y="617.516" fill="#000" stroke="none" dominant-baseline="alphabetic" font-family="Arial" font-size="17pt" font-style="normal" font-weight="normal" text-anchor="middle" text-decoration="normal" transform="scale(1,1)">C</text><text x="927.709" y="617.016" fill="#000" stroke="none" dominant-baseline="alphabetic" font-family="Arial" font-size="17pt" font-style="normal" font-weight="normal" text-anchor="start" text-decoration="normal" transform="scale(1,1)">H</text><text x="944.074" y="608.516" fill="#000" stroke="none" dominant-baseline="hanging" font-family="Arial" font-size="13pt" font-style="normal" font-weight="normal" text-anchor="start" text-decoration="normal" transform="scale(1,1)">2</text></g><g><text x="962.628" y="677.516" fill="#000" stroke="none" dominant-baseline="alphabetic" font-family="Arial" font-size="17pt" font-style="normal" font-weight="normal" text-anchor="middle" text-decoration="normal" transform="scale(1,1)">C</text><text x="937.876" y="677.016" fill="#000" stroke="none" dominant-baseline="alphabetic" font-family="Arial" font-size="17pt" font-style="normal" font-weight="normal" text-anchor="start" text-decoration="normal" transform="scale(1,1)">H</text></g><g><path fill="none" stroke="#111" stroke-linecap="round" stroke-linejoin="round" stroke-miterlimit="10" stroke-width="1.46" d="M 962.6280000000002 624.816 L 962.6280000000002 656.6160000000002" paint-order="fill stroke markers" transform="scale(1,1)"/></g><g><text x="1002.628" y="617.516" fill="#000" stroke="none" dominant-baseline="alphabetic" font-family="Arial" font-size="17pt" font-style="normal" font-weight="normal" text-anchor="middle" text-decoration="normal" transform="scale(1,1)">O</text><text x="1011.589" y="617.016" fill="#000" stroke="none" dominant-baseline="alphabetic" font-family="Arial" font-size="17pt" font-style="normal" font-weight="normal" text-anchor="start" text-decoration="normal" transform="scale(1,1)">H</text></g><g><path fill="none" stroke="#111" stroke-linecap="round" stroke-linejoin="round" stroke-miterlimit="10" stroke-width="1.46" d="M 974.1280000000002 608.5160000000001 L 991.6280000000002 608.5160000000001" paint-order="fill stroke markers" transform="scale(1,1)"/></g><g><text x="1002.628" y="677.516" fill="#000" stroke="none" dominant-baseline="alphabetic" font-family="Arial" font-size="17pt" font-style="normal" font-weight="normal" text-anchor="middle" text-decoration="normal" transform="scale(1,1)">O</text><text x="1011.589" y="677.016" fill="#000" stroke="none" dominant-baseline="alphabetic" font-family="Arial" font-size="17pt" font-style="normal" font-weight="normal" text-anchor="start" text-decoration="normal" transform="scale(1,1)">H</text></g><g><path fill="none" stroke="#111" stroke-linecap="round" stroke-linejoin="round" stroke-miterlimit="10" stroke-width="1.46" d="M 974.1280000000002 668.5160000000002 L 991.6280000000002 668.5160000000002" paint-order="fill stroke markers" transform="scale(1,1)"/></g><g><text x="962.628" y="737.516" fill="#000" stroke="none" dominant-baseline="alphabetic" font-family="Arial" font-size="17pt" font-style="normal" font-weight="normal" text-anchor="middle" text-decoration="normal" transform="scale(1,1)">C</text><text x="927.709" y="737.016" fill="#000" stroke="none" dominant-baseline="alphabetic" font-family="Arial" font-size="17pt" font-style="normal" font-weight="normal" text-anchor="start" text-decoration="normal" transform="scale(1,1)">H</text><text x="944.074" y="728.516" fill="#000" stroke="none" dominant-baseline="hanging" font-family="Arial" font-size="13pt" font-style="normal" font-weight="normal" text-anchor="start" text-decoration="normal" transform="scale(1,1)">2</text></g><g><path fill="none" stroke="#111" stroke-linecap="round" stroke-linejoin="round" stroke-miterlimit="10" stroke-width="1.46" d="M 962.6280000000002 680.4160000000002 L 962.6280000000002 716.6160000000002" paint-order="fill stroke markers" transform="scale(1,1)"/></g><g><text x="1002.628" y="737.516" fill="#000" stroke="none" dominant-baseline="alphabetic" font-family="Arial" font-size="17pt" font-style="normal" font-weight="normal" text-anchor="middle" text-decoration="normal" transform="scale(1,1)">O</text><text x="1011.589" y="737.016" fill="#000" stroke="none" dominant-baseline="alphabetic" font-family="Arial" font-size="17pt" font-style="normal" font-weight="normal" text-anchor="start" text-decoration="normal" transform="scale(1,1)">H</text></g><g><path fill="none" stroke="#111" stroke-linecap="round" stroke-linejoin="round" stroke-miterlimit="10" stroke-width="1.46" d="M 974.1280000000002 728.5160000000002 L 991.6280000000002 728.5160000000002" paint-order="fill stroke markers" transform="scale(1,1)"/></g><g><text x="1477.076" y="627.516" fill="#000" stroke="none" dominant-baseline="alphabetic" font-family="Arial" font-size="17pt" font-style="normal" font-weight="normal" text-anchor="middle" text-decoration="normal" transform="scale(1,1)">C</text><text x="1442.157" y="627.016" fill="#000" stroke="none" dominant-baseline="alphabetic" font-family="Arial" font-size="17pt" font-style="normal" font-weight="normal" text-anchor="start" text-decoration="normal" transform="scale(1,1)">H</text><text x="1458.522" y="618.516" fill="#000" stroke="none" dominant-baseline="hanging" font-family="Arial" font-size="13pt" font-style="normal" font-weight="normal" text-anchor="start" text-decoration="normal" transform="scale(1,1)">2</text></g><g><text x="1477.076" y="697.516" fill="#000" stroke="none" dominant-baseline="alphabetic" font-family="Arial" font-size="17pt" font-style="normal" font-weight="normal" text-anchor="middle" text-decoration="normal" transform="scale(1,1)">C</text><text x="1452.324" y="697.016" fill="#000" stroke="none" dominant-baseline="alphabetic" font-family="Arial" font-size="17pt" font-style="normal" font-weight="normal" text-anchor="start" text-decoration="normal" transform="scale(1,1)">H</text></g><g><path fill="none" stroke="#111" stroke-linecap="round" stroke-linejoin="round" stroke-miterlimit="10" stroke-width="1.46" d="M 1477.0760000000005 634.816 L 1477.0760000000005 676.6160000000002" paint-order="fill stroke markers" transform="scale(1,1)"/></g><g><text x="1517.076" y="627.516" fill="#000" stroke="none" dominant-baseline="alphabetic" font-family="Arial" font-size="17pt" font-style="normal" font-weight="normal" text-anchor="middle" text-decoration="normal" transform="scale(1,1)">O</text></g><g><path fill="none" stroke="#111" stroke-linecap="round" stroke-linejoin="round" stroke-miterlimit="10" stroke-width="1.46" d="M 1488.5760000000005 618.5160000000001 L 1506.0760000000005 618.5160000000001" paint-order="fill stroke markers" transform="scale(1,1)"/></g><g><text x="1477.076" y="767.516" fill="#000" stroke="none" dominant-baseline="alphabetic" font-family="Arial" font-size="17pt" font-style="normal" font-weight="normal" text-anchor="middle" text-decoration="normal" transform="scale(1,1)">C</text><text x="1442.157" y="767.016" fill="#000" stroke="none" dominant-baseline="alphabetic" font-family="Arial" font-size="17pt" font-style="normal" font-weight="normal" text-anchor="start" text-decoration="normal" transform="scale(1,1)">H</text><text x="1458.522" y="758.516" fill="#000" stroke="none" dominant-baseline="hanging" font-family="Arial" font-size="13pt" font-style="normal" font-weight="normal" text-anchor="start" text-decoration="normal" transform="scale(1,1)">2</text></g><g><path fill="none" stroke="#111" stroke-linecap="round" stroke-linejoin="round" stroke-miterlimit="10" stroke-width="1.46" d="M 1477.0760000000005 700.4160000000002 L 1477.0760000000005 746.6160000000002" paint-order="fill stroke markers" transform="scale(1,1)"/></g><g><text x="1517.076" y="767.516" fill="#000" stroke="none" dominant-baseline="alphabetic" font-family="Arial" font-size="17pt" font-style="normal" font-weight="normal" text-anchor="middle" text-decoration="normal" transform="scale(1,1)">O</text></g><g><path fill="none" stroke="#111" stroke-linecap="round" stroke-linejoin="round" stroke-miterlimit="10" stroke-width="1.46" d="M 1488.5760000000005 758.5160000000002 L 1506.0760000000005 758.5160000000002" paint-order="fill stroke markers" transform="scale(1,1)"/></g><g><text x="1517.076" y="697.516" fill="#000" stroke="none" dominant-baseline="alphabetic" font-family="Arial" font-size="17pt" font-style="normal" font-weight="normal" text-anchor="middle" text-decoration="normal" transform="scale(1,1)">O</text></g><g><path fill="none" stroke="#111" stroke-linecap="round" stroke-linejoin="round" stroke-miterlimit="10" stroke-width="1.46" d="M 1488.5760000000005 688.5160000000002 L 1506.0760000000005 688.5160000000002" paint-order="fill stroke markers" transform="scale(1,1)"/></g><g><text x="1557.076" y="767.516" fill="#000" stroke="none" dominant-baseline="alphabetic" font-family="Arial" font-size="17pt" font-style="normal" font-weight="normal" text-anchor="middle" text-decoration="normal" transform="scale(1,1)">C</text></g><g><path fill="none" stroke="#111" stroke-linecap="round" stroke-linejoin="round" stroke-miterlimit="10" stroke-width="1.46" d="M 1529.0760000000005 758.5160000000002 L 1546.5760000000005 758.5160000000002" paint-order="fill stroke markers" transform="scale(1,1)"/></g><g><text x="1557.076" y="587.516" fill="#000" stroke="none" dominant-baseline="alphabetic" font-family="Arial" font-size="17pt" font-style="normal" font-weight="normal" text-anchor="middle" text-decoration="normal" transform="scale(1,1)">O</text></g><g><text x="1557.076" y="627.516" fill="#000" stroke="none" dominant-baseline="alphabetic" font-family="Arial" font-size="17pt" font-style="normal" font-weight="normal" text-anchor="middle" text-decoration="normal" transform="scale(1,1)">C</text></g><g><path fill="none" stroke="#111" stroke-linecap="round" stroke-linejoin="round" stroke-miterlimit="10" stroke-width="1.46" d="M 1529.0760000000005 618.5160000000001 L 1546.5760000000005 618.5160000000001" paint-order="fill stroke markers" transform="scale(1,1)"/></g><g><path fill="none" stroke="#111" stroke-linecap="round" stroke-linejoin="round" stroke-miterlimit="10" stroke-width="1.46" d="M 1559.4761021662098 606.6160000000001 L 1559.4761021662098 590.416 M 1554.6758978337912 606.6160000000001 L 1554.6758978337912 590.416" paint-order="fill stroke markers" transform="scale(1,1)"/></g><g><text x="1557.076" y="697.516" fill="#000" stroke="none" dominant-baseline="alphabetic" font-family="Arial" font-size="17pt" font-style="normal" font-weight="normal" text-anchor="middle" text-decoration="normal" transform="scale(1,1)">C</text></g><g><path fill="none" stroke="#111" stroke-linecap="round" stroke-linejoin="round" stroke-miterlimit="10" stroke-width="1.46" d="M 1529.0760000000005 688.5160000000002 L 1546.5760000000005 688.5160000000002" paint-order="fill stroke markers" transform="scale(1,1)"/></g><text x="1597.076" y="627.016" fill="#000" stroke="none" dominant-baseline="alphabetic" font-family="Arial" font-size="17pt" font-style="normal" font-weight="normal" text-anchor="middle" text-decoration="normal" transform="scale(1,1)">R</text><g><path fill="none" stroke="#111" stroke-linecap="round" stroke-linejoin="round" stroke-miterlimit="10" stroke-width="1.46" d="M 1568.5760000000005 618.5160000000001 L 1586.5760000000005 618.5160000000001" paint-order="fill stroke markers" transform="scale(1,1)"/></g><text x="1597.076" y="697.016" fill="#000" stroke="none" dominant-baseline="alphabetic" font-family="Arial" font-size="17pt" font-style="normal" font-weight="normal" text-anchor="middle" text-decoration="normal" transform="scale(1,1)">R</text><g><path fill="none" stroke="#111" stroke-linecap="round" stroke-linejoin="round" stroke-miterlimit="10" stroke-width="1.46" d="M 1568.5760000000005 688.5160000000002 L 1586.5760000000005 688.5160000000002" paint-order="fill stroke markers" transform="scale(1,1)"/></g><text x="1597.076" y="767.016" fill="#000" stroke="none" dominant-baseline="alphabetic" font-family="Arial" font-size="17pt" font-style="normal" font-weight="normal" text-anchor="middle" text-decoration="normal" transform="scale(1,1)">R</text><g><path fill="none" stroke="#111" stroke-linecap="round" stroke-linejoin="round" stroke-miterlimit="10" stroke-width="1.46" d="M 1568.5760000000005 758.5160000000002 L 1586.5760000000005 758.5160000000002" paint-order="fill stroke markers" transform="scale(1,1)"/></g><g><text x="1557.076" y="657.516" fill="#000" stroke="none" dominant-baseline="alphabetic" font-family="Arial" font-size="17pt" font-style="normal" font-weight="normal" text-anchor="middle" text-decoration="normal" transform="scale(1,1)">O</text></g><g><path fill="none" stroke="#111" stroke-linecap="round" stroke-linejoin="round" stroke-miterlimit="10" stroke-width="1.46" d="M 1559.4761021662098 676.6160000000002 L 1559.4761021662098 660.4160000000002 M 1554.6758978337912 676.6160000000002 L 1554.6758978337912 660.4160000000002" paint-order="fill stroke markers" transform="scale(1,1)"/></g><g><text x="1557.076" y="727.516" fill="#000" stroke="none" dominant-baseline="alphabetic" font-family="Arial" font-size="17pt" font-style="normal" font-weight="normal" text-anchor="middle" text-decoration="normal" transform="scale(1,1)">O</text></g><g><path fill="none" stroke="#111" stroke-linecap="round" stroke-linejoin="round" stroke-miterlimit="10" stroke-width="1.46" d="M 1559.4761021662098 746.6160000000002 L 1559.4761021662098 730.4160000000002 M 1554.6758978337912 746.6160000000002 L 1554.6758978337912 730.4160000000002" paint-order="fill stroke markers" transform="scale(1,1)"/></g><g><text x="1109.302" y="679.286" fill="#000" stroke="none" dominant-baseline="alphabetic" font-family="'Times New Roman'" font-size="22.857" font-style="normal" font-weight="400" text-anchor="start" text-decoration="normal" transform="scale(1,1)">3HOOC</text><text x="1185.485" y="679.286" fill="#000" stroke="none" dominant-baseline="alphabetic" font-family="'Times New Roman'" font-size="22.857" font-style="normal" font-weight="400" text-anchor="start" text-decoration="normal" transform="scale(1,1)">-</text><text x="1193.096" y="679.286" fill="#000" stroke="none" dominant-baseline="alphabetic" font-family="'Times New Roman'" font-size="22.857" font-style="normal" font-weight="400" text-anchor="start" text-decoration="normal" transform="scale(1,1)">R</text></g><g><path fill="none" stroke="#000" stroke-miterlimit="10" stroke-width=".309" d="M 1256.1588799612864 670.7142857142858 L 1398.6588799612864 670.7142857142858" paint-order="fill stroke markers" transform="scale(1,1)"/></g><g><path fill="#000" stroke="#000" stroke-miterlimit="10" stroke-width=".309" d="M 1398.6588799612864 670.7142857142858 L 1396.9268291537176 667.7142857142858 L 1406.1588799612864 670.7142857142858 L 1396.9268291537176 673.7142857142858 Z" paint-order="stroke fill markers" transform="scale(1,1)"/></g><g><text x="1055.802" y="672.214" fill="#000" stroke="none" dominant-baseline="alphabetic" font-family="Arial" font-size="26.667" font-style="normal" font-weight="400" text-anchor="start" text-decoration="normal" transform="scale(1,1)">+</text></g></g></g></g></svg>

<svg xmlns="http://www.w3.org/2000/svg" width="694" height="219" viewBox="920 561 694 219" xmlns:xlink="http://www.w3.org/1999/xlink"><defs><path fill="none" d="M920 561h694v219H920z" id="a"/></defs><use href="#a"/><use href="#a"/><text x="962.63" y="617.52" dominant-baseline="alphabetic" font-family="Arial" font-size="17pt" text-anchor="middle" text-decoration="normal">C</text><text x="927.71" y="617.02" dominant-baseline="alphabetic" font-family="Arial" font-size="17pt" text-decoration="normal">H</text><text x="944.07" y="608.52" dominant-baseline="hanging" font-family="Arial" font-size="13pt" text-decoration="normal">2</text><text x="962.63" y="677.52" dominant-baseline="alphabetic" font-family="Arial" font-size="17pt" text-anchor="middle" text-decoration="normal">C</text><text x="937.88" y="677.02" dominant-baseline="alphabetic" font-family="Arial" font-size="17pt" text-decoration="normal">H</text><path fill="none" stroke="#111" stroke-linecap="round" stroke-linejoin="round" stroke-miterlimit="10" stroke-width="1.46" d="M962.628 624.816v31.8" paint-order="fill stroke markers"/><text x="1002.63" y="617.52" dominant-baseline="alphabetic" font-family="Arial" font-size="17pt" text-anchor="middle" text-decoration="normal">O</text><text x="1011.59" y="617.02" dominant-baseline="alphabetic" font-family="Arial" font-size="17pt" text-decoration="normal">H</text><path fill="none" stroke="#111" stroke-linecap="round" stroke-linejoin="round" stroke-miterlimit="10" stroke-width="1.46" d="M974.128 608.516h17.5" paint-order="fill stroke markers"/><text x="1002.63" y="677.52" dominant-baseline="alphabetic" font-family="Arial" font-size="17pt" text-anchor="middle" text-decoration="normal">O</text><text x="1011.59" y="677.02" dominant-baseline="alphabetic" font-family="Arial" font-size="17pt" text-decoration="normal">H</text><path fill="none" stroke="#111" stroke-linecap="round" stroke-linejoin="round" stroke-miterlimit="10" stroke-width="1.46" d="M974.128 668.516h17.5" paint-order="fill stroke markers"/><text x="962.63" y="737.52" dominant-baseline="alphabetic" font-family="Arial" font-size="17pt" text-anchor="middle" text-decoration="normal">C</text><text x="927.71" y="737.02" dominant-baseline="alphabetic" font-family="Arial" font-size="17pt" text-decoration="normal">H</text><text x="944.07" y="728.52" dominant-baseline="hanging" font-family="Arial" font-size="13pt" text-decoration="normal">2</text><path fill="none" stroke="#111" stroke-linecap="round" stroke-linejoin="round" stroke-miterlimit="10" stroke-width="1.46" d="M962.628 680.416v36.2" paint-order="fill stroke markers"/><text x="1002.63" y="737.52" dominant-baseline="alphabetic" font-family="Arial" font-size="17pt" text-anchor="middle" text-decoration="normal">O</text><text x="1011.59" y="737.02" dominant-baseline="alphabetic" font-family="Arial" font-size="17pt" text-decoration="normal">H</text><path fill="none" stroke="#111" stroke-linecap="round" stroke-linejoin="round" stroke-miterlimit="10" stroke-width="1.46" d="M974.128 728.516h17.5" paint-order="fill stroke markers"/><text x="1477.08" y="627.52" dominant-baseline="alphabetic" font-family="Arial" font-size="17pt" text-anchor="middle" text-decoration="normal">C</text><text x="1442.16" y="627.02" dominant-baseline="alphabetic" font-family="Arial" font-size="17pt" text-decoration="normal">H</text><text x="1458.52" y="618.52" dominant-baseline="hanging" font-family="Arial" font-size="13pt" text-decoration="normal">2</text><text x="1477.08" y="697.52" dominant-baseline="alphabetic" font-family="Arial" font-size="17pt" text-anchor="middle" text-decoration="normal">C</text><text x="1452.32" y="697.02" dominant-baseline="alphabetic" font-family="Arial" font-size="17pt" text-decoration="normal">H</text><path fill="none" stroke="#111" stroke-linecap="round" stroke-linejoin="round" stroke-miterlimit="10" stroke-width="1.46" d="M1477.076 634.816v41.8" paint-order="fill stroke markers"/><text x="1517.08" y="627.52" dominant-baseline="alphabetic" font-family="Arial" font-size="17pt" text-anchor="middle" text-decoration="normal">O</text><path fill="none" stroke="#111" stroke-linecap="round" stroke-linejoin="round" stroke-miterlimit="10" stroke-width="1.46" d="M1488.576 618.516h17.5" paint-order="fill stroke markers"/><text x="1477.08" y="767.52" dominant-baseline="alphabetic" font-family="Arial" font-size="17pt" text-anchor="middle" text-decoration="normal">C</text><text x="1442.16" y="767.02" dominant-baseline="alphabetic" font-family="Arial" font-size="17pt" text-decoration="normal">H</text><text x="1458.52" y="758.52" dominant-baseline="hanging" font-family="Arial" font-size="13pt" text-decoration="normal">2</text><path fill="none" stroke="#111" stroke-linecap="round" stroke-linejoin="round" stroke-miterlimit="10" stroke-width="1.46" d="M1477.076 700.416v46.2" paint-order="fill stroke markers"/><text x="1517.08" y="767.52" dominant-baseline="alphabetic" font-family="Arial" font-size="17pt" text-anchor="middle" text-decoration="normal">O</text><path fill="none" stroke="#111" stroke-linecap="round" stroke-linejoin="round" stroke-miterlimit="10" stroke-width="1.46" d="M1488.576 758.516h17.5" paint-order="fill stroke markers"/><text x="1517.08" y="697.52" dominant-baseline="alphabetic" font-family="Arial" font-size="17pt" text-anchor="middle" text-decoration="normal">O</text><path fill="none" stroke="#111" stroke-linecap="round" stroke-linejoin="round" stroke-miterlimit="10" stroke-width="1.46" d="M1488.576 688.516h17.5" paint-order="fill stroke markers"/><text x="1557.08" y="767.52" dominant-baseline="alphabetic" font-family="Arial" font-size="17pt" text-anchor="middle" text-decoration="normal">C</text><path fill="none" stroke="#111" stroke-linecap="round" stroke-linejoin="round" stroke-miterlimit="10" stroke-width="1.46" d="M1529.076 758.516h17.5" paint-order="fill stroke markers"/><text x="1557.08" y="587.52" dominant-baseline="alphabetic" font-family="Arial" font-size="17pt" text-anchor="middle" text-decoration="normal">O</text><text x="1557.08" y="627.52" dominant-baseline="alphabetic" font-family="Arial" font-size="17pt" text-anchor="middle" text-decoration="normal">C</text><path fill="none" stroke="#111" stroke-linecap="round" stroke-linejoin="round" stroke-miterlimit="10" stroke-width="1.46" d="M1529.076 618.516h17.5m12.9-11.9v-16.2m-4.8 16.2v-16.2" paint-order="fill stroke markers"/><text x="1557.08" y="697.52" dominant-baseline="alphabetic" font-family="Arial" font-size="17pt" text-anchor="middle" text-decoration="normal">C</text><path fill="none" stroke="#111" stroke-linecap="round" stroke-linejoin="round" stroke-miterlimit="10" stroke-width="1.46" d="M1529.076 688.516h17.5" paint-order="fill stroke markers"/><text x="1597.08" y="627.02" dominant-baseline="alphabetic" font-family="Arial" font-size="17pt" text-anchor="middle" text-decoration="normal">R</text><path fill="none" stroke="#111" stroke-linecap="round" stroke-linejoin="round" stroke-miterlimit="10" stroke-width="1.46" d="M1568.576 618.516h18" paint-order="fill stroke markers"/><text x="1597.08" y="697.02" dominant-baseline="alphabetic" font-family="Arial" font-size="17pt" text-anchor="middle" text-decoration="normal">R</text><path fill="none" stroke="#111" stroke-linecap="round" stroke-linejoin="round" stroke-miterlimit="10" stroke-width="1.46" d="M1568.576 688.516h18" paint-order="fill stroke markers"/><text x="1597.08" y="767.02" dominant-baseline="alphabetic" font-family="Arial" font-size="17pt" text-anchor="middle" text-decoration="normal">R</text><path fill="none" stroke="#111" stroke-linecap="round" stroke-linejoin="round" stroke-miterlimit="10" stroke-width="1.46" d="M1568.576 758.516h18" paint-order="fill stroke markers"/><text x="1557.08" y="657.52" dominant-baseline="alphabetic" font-family="Arial" font-size="17pt" text-anchor="middle" text-decoration="normal">O</text><path fill="none" stroke="#111" stroke-linecap="round" stroke-linejoin="round" stroke-miterlimit="10" stroke-width="1.46" d="M1559.476 676.616v-16.2m-4.8 16.2v-16.2" paint-order="fill stroke markers"/><text x="1557.08" y="727.52" dominant-baseline="alphabetic" font-family="Arial" font-size="17pt" text-anchor="middle" text-decoration="normal">O</text><path fill="none" stroke="#111" stroke-linecap="round" stroke-linejoin="round" stroke-miterlimit="10" stroke-width="1.46" d="M1559.476 746.616v-16.2m-4.8 16.2v-16.2" paint-order="fill stroke markers"/><text x="1109.3" y="679.29" dominant-baseline="alphabetic" font-family="'Times New Roman'" font-size="22.86" font-weight="400" text-decoration="normal">3HOOC</text><text x="1185.48" y="679.29" dominant-baseline="alphabetic" font-family="'Times New Roman'" font-size="22.86" font-weight="400" text-decoration="normal">-</text><text x="1193.1" y="679.29" dominant-baseline="alphabetic" font-family="'Times New Roman'" font-size="22.86" font-weight="400" text-decoration="normal">R</text><path fill="none" stroke="#000" stroke-miterlimit="10" stroke-width="0.31" d="M1256.159 670.714h142.5" paint-order="fill stroke markers"/><path stroke="#000" stroke-miterlimit="10" stroke-width="0.31" d="m1398.659 670.714-1.732-3 9.232 3-9.232 3Z" paint-order="stroke fill markers"/><text x="1055.8" y="672.21" dominant-baseline="alphabetic" font-family="Arial" font-size="26.67" font-weight="400" text-decoration="normal">+</text></svg>
